svg/24/logo-gitlab.svg

<svg width="24" height="24" viewBox="0 0 24 24" fill="currentColor" xmlns="http://www.w3.org/2000/svg"><path d="M21.6678 9.99437L21.6397 9.92251L18.9175 2.81797C18.8621 2.67872 18.764 2.5606 18.6373 2.48055C18.5106 2.40186 18.3627 2.36396 18.2137 2.37197C18.0647 2.37997 17.9218 2.4335 17.8042 2.52533C17.6879 2.61979 17.6035 2.74779 17.5626 2.89191L15.7245 8.51556H8.28148L6.44339 2.89191C6.40352 2.74701 6.31898 2.61837 6.20178 2.52429C6.08418 2.43246 5.94124 2.37893 5.79225 2.37092C5.64326 2.36292 5.49541 2.40082 5.36864 2.47951C5.24224 2.55988 5.14426 2.6779 5.0885 2.81693L2.36103 9.91834L2.33396 9.9902C1.94208 11.0141 1.8937 12.1377 2.19614 13.1915C2.49857 14.2453 3.13541 15.1723 4.01064 15.8325L4.02001 15.8398L4.045 15.8575L8.19192 18.963L10.2435 20.5158L11.4932 21.4593C11.6394 21.5703 11.8179 21.6304 12.0014 21.6304C12.185 21.6304 12.3635 21.5703 12.5096 21.4593L13.7593 20.5158L15.8109 18.963L19.9828 15.8388L19.9933 15.8305C20.8665 15.1701 21.5019 14.2441 21.8038 13.1917C22.1058 12.1393 22.0581 11.0173 21.6678 9.99437Z"/></svg>

<svg xmlns="http://www.w3.org/2000/svg" width="24" height="24" fill="currentColor" viewBox="0 0 24 24">
  <path d="m21.668 9.994-.028-.072-2.723-7.104a.71.71 0 0 0-.703-.446.729.729 0 0 0-.41.153.729.729 0 0 0-.241.367l-1.838 5.623H8.28L6.443 2.892a.714.714 0 0 0-.241-.368.729.729 0 0 0-.833-.045.716.716 0 0 0-.28.338L2.36 9.918l-.027.072a5.055 5.055 0 0 0 1.677 5.842l.009.008.025.017 4.147 3.106 2.051 1.553 1.25.943a.84.84 0 0 0 1.017 0l1.25-.943 2.05-1.553 4.173-3.124.01-.009a5.057 5.057 0 0 0 1.675-5.836Z"/>
</svg>
